X: 15976
T: Grappa Groove
R: jig
M: 6/8
K: Bminor
|:f2B B2f-|fgf edc|B2f fed|e3 ede|
(ef)B B2f-|fgf edc|B2a f2e|1 edc Bfe:|2 [M:3/28] edc||
|:[M:6/8] B2F B2D|B2F BFd|c2A A2c|e3 edc|
B2F B2D|B2F BFd|c2e edc|1 [M:3/28] dBA:|2 dBA Bfe||

